src/Pure/16/symbolic/actions/builder-terminal-symbolic.svg

<?xml version="1.0" encoding="UTF-8" standalone="no"?>
<svg
   width="16px"
   height="16px"
   version="1.1"
   viewBox="0 0 16 16"
   id="svg3"
   sodipodi:docname="builder-terminal-symbolic.svg"
   inkscape:version="1.4.2 (ebf0e940d0, 2025-05-08)"
   xmlns:inkscape="http://www.inkscape.org/namespaces/inkscape"
   xmlns:sodipodi="http://sodipodi.sourceforge.net/DTD/sodipodi-0.dtd"
   xmlns="http://www.w3.org/2000/svg"
   xmlns:svg="http://www.w3.org/2000/svg">
  <defs
     id="defs3">
     <style id="current-color-scheme" type="text/css">
        .ColorScheme-Text { color:#363636; }
     </style>
  </defs>
  <sodipodi:namedview
     id="namedview3"
     pagecolor="#ffffff"
     bordercolor="#000000"
     borderopacity="0.25"
     inkscape:showpageshadow="2"
     inkscape:pageopacity="0.0"
     inkscape:pagecheckerboard="0"
     inkscape:deskcolor="#d1d1d1"
     inkscape:zoom="49.6875"
     inkscape:cx="8"
     inkscape:cy="8"
     inkscape:window-width="1920"
     inkscape:window-height="1010"
     inkscape:window-x="0"
     inkscape:window-y="0"
     inkscape:window-maximized="1"
     inkscape:current-layer="svg3" />
  <path
     id="path1"
     style="fill:currentColor"
     class="ColorScheme-Text"
     d="M 2 1 C 0.892 1 0 1.892 0 3 L 0 13 C 0 14.108 0.892 15 2 15 L 14 15 C 15.108 15 16 14.108 16 13 L 16 3 C 16 1.892 15.108 1 14 1 L 2 1 z M 2 2 L 14 2 C 14.554 2 15 2.446 15 3 L 15 13 C 15 13.554 14.554 14 14 14 L 2 14 C 1.446 14 1 13.554 1 13 L 1 3 C 1 2.446 1.446 2 2 2 z " />
  <path
     id="rect1"
     style="fill:currentColor"
     class="ColorScheme-Text"
     d="M 4.171875 5.171875 L 3.4648438 5.8789062 L 5.5859375 8 L 3.4648438 10.121094 L 4.171875 10.828125 L 7 8 L 4.171875 5.171875 z M 7 10 L 7 11 L 11 11 L 11 10 L 7 10 z " />
</svg>

<svg width="16px" height="16px" version="1.1" viewBox="0 0 16 16" xmlns="http://www.w3.org/2000/svg">
 <path d="m2 1c-1.108 0-2 0.892-2 2v10c0 1.108 0.892 2 2 2h12c1.108 0 2-0.892 2-2v-10c0-1.108-0.892-2-2-2zm0 1h12c0.554 0 1 0.446 1 1v10c0 0.554-0.446 1-1 1h-12c-0.554 0-1-0.446-1-1v-10c0-0.554 0.446-1 1-1z" fill="#363636"/>
 <rect x="7" y="10" width="4" height="1" fill="#363636"/>
 <rect transform="matrix(.70711 -.70711 -.70711 -.70711 0 0)" x="-4.7071" y="-10.607" width="4" height="1" fill="#363636"/>
 <rect transform="rotate(45)" x="6.6066" y=".70711" width="4" height="1" fill="#363636"/>
</svg>
